public/logos/FY.svg

<?xml version="1.0" encoding="UTF-8"?>
<svg xmlns="http://www.w3.org/2000/svg" xmlns:xlink="http://www.w3.org/1999/xlink" width="133.65pt" height="59pt" viewBox="0 0 133.65 59" version="1.1">
<defs>
<clipPath id="clip1">
  <path d="M 115 30 L 133.648438 30 L 133.648438 59 L 115 59 Z M 115 30 "/>
</clipPath>
</defs>
<g id="surface1">
<path style=" stroke:none;fill-rule:nonzero;fill:rgb(93.823242%,32.594299%,10.630798%);fill-opacity:1;" d="M 13.988281 3.324219 C 12.976562 3.800781 12.027344 4.476562 11.394531 5.414062 C 10.621094 6.5 10.332031 7.855469 10.332031 9.167969 C 10.371094 11.046875 10.882812 12.886719 11.570312 14.621094 C 12.367188 16.65625 13.402344 18.585938 14.523438 20.457031 C 16.40625 23.558594 18.539062 26.5 20.796875 29.335938 C 22.917969 32.015625 25.160156 34.59375 27.472656 37.105469 C 28.101562 37.722656 28.632812 38.441406 29.316406 39 C 29.363281 38.425781 29.316406 37.851562 29.316406 37.277344 C 29.140625 32.074219 28.738281 26.871094 27.949219 21.722656 C 27.332031 17.835938 26.535156 13.945312 25.128906 10.257812 C 24.441406 8.496094 23.609375 6.769531 22.4375 5.277344 C 21.441406 4.03125 20.128906 2.9375 18.53125 2.597656 C 16.988281 2.238281 15.386719 2.652344 13.988281 3.324219 Z M 16.824219 0 L 17.953125 0 C 18.816406 0.078125 19.671875 0.289062 20.457031 0.667969 C 22.476562 1.628906 23.960938 3.417969 25.085938 5.308594 C 26.875 8.359375 27.941406 11.765625 28.785156 15.179688 C 29.90625 19.847656 30.550781 24.621094 30.988281 29.398438 C 31.425781 34.429688 31.652344 39.480469 31.605469 44.527344 C 30.480469 43.457031 29.40625 42.339844 28.335938 41.21875 C 24.351562 37.011719 20.546875 32.617188 17.089844 27.960938 C 14.714844 24.738281 12.488281 21.386719 10.703125 17.792969 C 9.574219 15.476562 8.605469 13.046875 8.210938 10.484375 C 7.921875 8.535156 8.011719 6.445312 8.949219 4.675781 C 9.792969 3.035156 11.308594 1.84375 12.964844 1.097656 C 14.1875 0.535156 15.480469 0.109375 16.824219 0 "/>
<path style=" stroke:none;fill-rule:nonzero;fill:rgb(93.823242%,32.594299%,10.630798%);fill-opacity:1;" d="M 53.863281 21.488281 C 54.519531 21.328125 55.242188 21.367188 55.855469 21.675781 C 56.5625 22.046875 57.144531 22.714844 57.316406 23.507812 C 57.441406 24.105469 57.40625 24.757812 57.113281 25.304688 C 56.777344 25.976562 56.171875 26.492188 55.480469 26.78125 C 54.550781 27.128906 53.433594 26.902344 52.730469 26.199219 C 51.757812 25.308594 51.59375 23.710938 52.320312 22.621094 C 52.6875 22.089844 53.226562 21.652344 53.863281 21.488281 "/>
<path style=" stroke:none;fill-rule:nonzero;fill:rgb(93.823242%,32.594299%,10.630798%);fill-opacity:1;" d="M 43.742188 23.597656 C 45.476562 22.921875 47.359375 22.734375 49.207031 22.75 C 49.207031 23.46875 49.207031 24.191406 49.207031 24.914062 C 47.679688 24.90625 46.042969 25.105469 44.777344 26.035156 C 43.363281 27.050781 42.5625 28.769531 42.46875 30.484375 C 42.386719 31.972656 42.445312 33.464844 42.429688 34.957031 C 44.699219 34.957031 46.964844 34.957031 49.230469 34.957031 C 49.230469 35.53125 49.230469 36.101562 49.230469 36.675781 C 46.964844 36.675781 44.699219 36.675781 42.429688 36.675781 C 42.429688 40.785156 42.429688 44.898438 42.429688 49.007812 C 41.007812 49.007812 39.589844 49.007812 38.167969 49.007812 C 38.167969 43.433594 38.167969 37.859375 38.167969 32.285156 C 38.191406 30.472656 38.554688 28.625 39.515625 27.066406 C 40.484375 25.476562 42.007812 24.25 43.742188 23.597656 "/>
<path style=" stroke:none;fill-rule:nonzero;fill:rgb(93.823242%,32.594299%,10.630798%);fill-opacity:1;" d="M 93.539062 24.464844 C 95.648438 23.089844 98.234375 22.722656 100.707031 22.75 C 100.707031 23.472656 100.707031 24.191406 100.707031 24.914062 C 99.160156 24.90625 97.507812 25.113281 96.230469 26.0625 C 94.78125 27.132812 93.996094 28.933594 93.945312 30.710938 C 93.910156 32.125 93.9375 33.539062 93.933594 34.957031 C 96.207031 34.957031 98.480469 34.957031 100.757812 34.957031 C 100.757812 35.527344 100.757812 36.101562 100.757812 36.675781 C 98.480469 36.675781 96.203125 36.667969 93.929688 36.679688 C 93.933594 40.789062 93.929688 44.898438 93.929688 49.007812 C 92.511719 49.007812 91.089844 49.007812 89.671875 49.007812 C 89.667969 44.199219 89.671875 39.390625 89.667969 34.578125 C 89.6875 32.851562 89.558594 31.089844 90.03125 29.40625 C 90.53125 27.398438 91.800781 25.59375 93.539062 24.464844 "/>
<path style=" stroke:none;fill-rule:nonzero;fill:rgb(93.823242%,32.594299%,10.630798%);fill-opacity:1;" d="M 104.097656 22.796875 C 105.507812 22.796875 106.921875 22.796875 108.332031 22.796875 C 108.335938 28.65625 108.324219 34.515625 108.339844 40.375 C 108.316406 42.089844 108.835938 43.875 110.085938 45.09375 C 111.128906 46.167969 112.648438 46.621094 114.113281 46.699219 C 114.113281 47.417969 114.113281 48.140625 114.113281 48.863281 C 111.980469 48.835938 109.785156 48.390625 107.980469 47.207031 C 106.660156 46.339844 105.578125 45.097656 104.945312 43.652344 C 104.398438 42.433594 104.148438 41.097656 104.097656 39.765625 C 104.097656 34.109375 104.097656 28.453125 104.097656 22.796875 "/>
<path style=" stroke:none;fill-rule:nonzero;fill:rgb(93.823242%,32.594299%,10.630798%);fill-opacity:1;" d="M 52.597656 30.449219 C 54.015625 30.445312 55.4375 30.445312 56.855469 30.449219 C 56.859375 36.601562 56.855469 42.753906 56.855469 48.90625 C 55.4375 48.910156 54.015625 48.90625 52.597656 48.910156 C 52.59375 42.753906 52.597656 36.601562 52.597656 30.449219 "/>
<g clip-path="url(#clip1)" clip-rule="nonzero">
<path style=" stroke:none;fill-rule:nonzero;fill:rgb(93.823242%,32.594299%,10.630798%);fill-opacity:1;" d="M 115.308594 30.472656 C 116.730469 30.472656 118.148438 30.472656 119.570312 30.472656 C 119.570312 33.238281 119.570312 36.003906 119.570312 38.769531 C 119.578125 40.097656 119.492188 41.449219 119.808594 42.753906 C 120.089844 43.988281 120.722656 45.207031 121.789062 45.9375 C 123.328125 47.015625 125.53125 47.023438 127.074219 45.941406 C 128.511719 44.984375 129.304688 43.261719 129.335938 41.558594 C 129.339844 37.863281 129.335938 34.167969 129.335938 30.472656 C 130.609375 30.46875 131.882812 30.476562 133.152344 30.46875 C 133.320312 30.46875 133.503906 30.449219 133.644531 30.570312 L 133.644531 49.492188 C 133.566406 50.574219 133.488281 51.667969 133.15625 52.710938 C 132.59375 54.625 131.316406 56.316406 129.621094 57.367188 C 127.773438 58.527344 125.554688 58.917969 123.40625 59 L 122.582031 59 C 122.582031 58.269531 122.582031 57.539062 122.582031 56.808594 C 124.171875 56.851562 125.882812 56.613281 127.164062 55.597656 C 128.523438 54.539062 129.265625 52.828125 129.34375 51.128906 C 129.382812 49.890625 129.34375 48.652344 129.363281 47.410156 C 128.40625 48.28125 127.125 48.691406 125.867188 48.894531 C 123.886719 49.175781 121.804688 48.996094 119.976562 48.140625 C 118.625 47.5 117.398438 46.507812 116.660156 45.1875 C 115.722656 43.546875 115.355469 41.636719 115.308594 39.765625 C 115.308594 36.667969 115.308594 33.570312 115.308594 30.472656 "/>
</g>
<path style=" stroke:none;fill-rule:nonzero;fill:rgb(93.823242%,32.594299%,10.630798%);fill-opacity:1;" d="M 66.085938 31.210938 C 67.421875 30.679688 68.878906 30.550781 70.308594 30.546875 C 70.328125 31.160156 70.34375 31.773438 70.335938 32.386719 C 69.714844 32.335938 69.136719 32.589844 68.550781 32.75 C 67.394531 33.109375 66.34375 33.855469 65.683594 34.882812 C 64.972656 35.929688 64.691406 37.214844 64.679688 38.46875 C 64.679688 41.957031 64.679688 45.445312 64.679688 48.933594 C 63.257812 48.933594 61.839844 48.933594 60.417969 48.933594 C 60.417969 45.910156 60.417969 42.886719 60.417969 39.863281 C 60.457031 38.144531 60.835938 36.402344 61.738281 34.921875 C 62.242188 34.066406 62.933594 33.339844 63.683594 32.699219 C 64.402344 32.082031 65.203125 31.550781 66.085938 31.210938 "/>
<path style=" stroke:none;fill-rule:nonzero;fill:rgb(93.823242%,32.594299%,10.630798%);fill-opacity:1;" d="M 76.894531 32.960938 C 75.988281 33.105469 75.199219 33.65625 74.59375 34.328125 C 73.570312 35.519531 73.136719 37.101562 72.964844 38.636719 C 76.160156 38.640625 79.363281 38.664062 82.558594 38.628906 C 82.359375 37.042969 82.046875 35.320312 80.859375 34.152344 C 79.855469 33.101562 78.300781 32.730469 76.894531 32.960938 Z M 70.324219 34.9375 C 71.984375 32.332031 75.058594 30.710938 78.140625 30.808594 C 79.796875 30.875 81.429688 31.378906 82.816406 32.285156 C 84.605469 33.4375 85.886719 35.308594 86.390625 37.371094 C 86.703125 38.535156 86.628906 39.742188 86.605469 40.933594 C 82.042969 40.933594 77.480469 40.933594 72.917969 40.9375 C 73.050781 41.953125 73.253906 42.976562 73.703125 43.90625 C 74.449219 45.449219 75.945312 46.644531 77.660156 46.886719 C 78.789062 47.042969 79.957031 46.988281 81.0625 46.699219 C 82.628906 46.289062 84.035156 45.4375 85.308594 44.457031 C 85.308594 44.894531 85.304688 45.332031 85.3125 45.773438 C 84.171875 46.871094 82.863281 47.839844 81.351562 48.359375 C 79.492188 49.011719 77.441406 49.074219 75.53125 48.597656 C 73.699219 48.121094 72.015625 47.046875 70.855469 45.542969 C 69.820312 44.195312 69.160156 42.558594 68.96875 40.867188 C 68.691406 38.8125 69.195312 36.671875 70.324219 34.9375 "/>
<path style=" stroke:none;fill-rule:nonzero;fill:rgb(93.823242%,32.594299%,10.630798%);fill-opacity:1;" d="M 4.507812 33.796875 C 3.640625 34.171875 2.953125 34.882812 2.515625 35.710938 C 2.085938 36.53125 1.753906 37.433594 1.75 38.375 C 1.734375 39.460938 2.214844 40.511719 2.953125 41.296875 C 3.730469 42.148438 4.722656 42.769531 5.742188 43.292969 C 8.324219 44.558594 11.136719 45.246094 13.945312 45.789062 C 16.816406 46.320312 19.71875 46.660156 22.625 46.882812 C 24.320312 47.003906 26.019531 47.121094 27.71875 47.121094 C 27.199219 46.511719 26.597656 45.980469 26.011719 45.4375 C 24.222656 43.765625 22.367188 42.160156 20.453125 40.632812 C 18.09375 38.761719 15.644531 36.980469 12.996094 35.535156 C 11.464844 34.71875 9.875 33.96875 8.167969 33.601562 C 6.964844 33.347656 5.65625 33.285156 4.507812 33.796875 Z M 4.222656 32.050781 C 5.945312 31.539062 7.789062 31.847656 9.46875 32.371094 C 11.636719 33.066406 13.65625 34.15625 15.589844 35.339844 C 19.789062 37.96875 23.613281 41.15625 27.265625 44.496094 C 28.761719 45.890625 30.253906 47.285156 31.65625 48.777344 C 29.007812 48.789062 26.363281 48.671875 23.722656 48.492188 C 19.058594 48.144531 14.386719 47.585938 9.863281 46.367188 C 7.359375 45.660156 4.839844 44.78125 2.726562 43.226562 C 1.324219 42.195312 0.144531 40.6875 0 38.898438 L 0 37.953125 C 0.117188 36.773438 0.558594 35.644531 1.132812 34.613281 C 1.800781 33.421875 2.894531 32.4375 4.222656 32.050781 "/>
<path style=" stroke:none;fill-rule:nonzero;fill:rgb(96.359253%,53.88031%,6.941223%);fill-opacity:1;" d="M 15.457031 5.5 C 14.378906 5.910156 13.414062 6.730469 13.023438 7.839844 C 12.542969 9.160156 12.726562 10.613281 13.070312 11.949219 C 13.691406 14.265625 14.816406 16.410156 16.027344 18.46875 C 17.828125 21.472656 19.910156 24.300781 22.097656 27.035156 C 23.648438 28.9375 25.214844 30.832031 26.90625 32.613281 C 26.839844 30.675781 26.625 28.742188 26.421875 26.816406 C 25.945312 22.671875 25.289062 18.535156 24.167969 14.511719 C 23.546875 12.347656 22.800781 10.195312 21.636719 8.261719 C 20.910156 7.097656 19.992188 5.96875 18.710938 5.40625 C 17.675781 4.949219 16.472656 5.050781 15.457031 5.5 Z M 13.988281 3.324219 C 15.386719 2.65625 16.988281 2.238281 18.53125 2.597656 C 20.128906 2.9375 21.4375 4.03125 22.4375 5.277344 C 23.609375 6.769531 24.441406 8.496094 25.128906 10.257812 C 26.535156 13.945312 27.332031 17.835938 27.949219 21.722656 C 28.738281 26.871094 29.140625 32.074219 29.316406 37.277344 C 29.316406 37.851562 29.363281 38.425781 29.316406 39 C 28.632812 38.441406 28.101562 37.722656 27.472656 37.105469 C 25.160156 34.59375 22.917969 32.015625 20.796875 29.335938 C 18.539062 26.5 16.40625 23.558594 14.523438 20.457031 C 13.402344 18.585938 12.367188 16.65625 11.570312 14.621094 C 10.882812 12.886719 10.371094 11.046875 10.332031 9.167969 C 10.332031 7.855469 10.621094 6.5 11.394531 5.414062 C 12.027344 4.476562 12.976562 3.800781 13.988281 3.324219 "/>
<path style=" stroke:none;fill-rule:nonzero;fill:rgb(96.359253%,53.88031%,6.941223%);fill-opacity:1;" d="M 5.496094 35.402344 C 4.917969 35.628906 4.4375 36.078125 4.132812 36.617188 C 3.703125 37.390625 3.472656 38.332031 3.75 39.195312 C 4.027344 40.050781 4.707031 40.707031 5.425781 41.210938 C 6.773438 42.125 8.324219 42.675781 9.875 43.132812 C 11.855469 43.703125 13.886719 44.082031 15.921875 44.382812 C 18.359375 44.722656 20.8125 44.996094 23.273438 45.074219 C 23.019531 44.773438 22.710938 44.527344 22.414062 44.269531 C 21.199219 43.21875 19.957031 42.195312 18.675781 41.21875 C 16.34375 39.441406 13.925781 37.742188 11.289062 36.449219 C 10.230469 35.941406 9.128906 35.5 7.976562 35.277344 C 7.15625 35.125 6.285156 35.089844 5.496094 35.402344 Z M 4.507812 33.796875 C 5.65625 33.285156 6.964844 33.347656 8.167969 33.601562 C 9.875 33.96875 11.460938 34.71875 12.992188 35.53125 C 15.644531 36.976562 18.09375 38.757812 20.453125 40.628906 C 22.367188 42.160156 24.222656 43.761719 26.011719 45.4375 C 26.597656 45.976562 27.199219 46.511719 27.71875 47.117188 C 26.019531 47.121094 24.320312 47.003906 22.625 46.882812 C 19.71875 46.65625 16.816406 46.320312 13.945312 45.785156 C 11.136719 45.242188 8.324219 44.558594 5.742188 43.289062 C 4.722656 42.769531 3.730469 42.148438 2.953125 41.292969 C 2.214844 40.511719 1.734375 39.457031 1.75 38.371094 C 1.753906 37.433594 2.085938 36.53125 2.515625 35.710938 C 2.953125 34.882812 3.640625 34.171875 4.507812 33.796875 "/>
<path style=" stroke:none;fill-rule:nonzero;fill:rgb(98.069763%,80.316162%,3.157043%);fill-opacity:1;" d="M 15.457031 5.5 C 16.472656 5.050781 17.675781 4.949219 18.710938 5.40625 C 19.992188 5.96875 20.914062 7.097656 21.636719 8.261719 C 22.800781 10.195312 23.546875 12.347656 24.167969 14.511719 C 25.289062 18.53125 25.945312 22.667969 26.421875 26.8125 C 26.625 28.742188 26.84375 30.675781 26.90625 32.613281 C 25.214844 30.832031 23.648438 28.9375 22.097656 27.03125 C 19.910156 24.300781 17.828125 21.472656 16.027344 18.46875 C 14.816406 16.410156 13.691406 14.265625 13.070312 11.949219 C 12.726562 10.613281 12.542969 9.160156 13.023438 7.835938 C 13.414062 6.730469 14.378906 5.910156 15.457031 5.5 "/>
<path style=" stroke:none;fill-rule:nonzero;fill:rgb(98.069763%,80.316162%,3.157043%);fill-opacity:1;" d="M 5.496094 35.402344 C 6.285156 35.089844 7.160156 35.125 7.976562 35.277344 C 9.132812 35.5 10.230469 35.941406 11.289062 36.453125 C 13.925781 37.746094 16.347656 39.441406 18.679688 41.21875 C 19.957031 42.195312 21.199219 43.21875 22.414062 44.269531 C 22.710938 44.53125 23.019531 44.773438 23.273438 45.074219 C 20.8125 44.996094 18.359375 44.722656 15.921875 44.382812 C 13.886719 44.082031 11.855469 43.707031 9.875 43.132812 C 8.324219 42.675781 6.773438 42.125 5.425781 41.214844 C 4.710938 40.707031 4.03125 40.050781 3.75 39.195312 C 3.472656 38.332031 3.703125 37.390625 4.132812 36.617188 C 4.4375 36.074219 4.917969 35.628906 5.496094 35.402344 "/>
</g>
</svg>

<svg xmlns="http://www.w3.org/2000/svg" width="178.2" height="59pt" viewBox="0 0 133.65 59"><defs><clipPath id="a"><path d="M115 30h18.648v29H115Zm0 0"/></clipPath></defs><path d="M13.988 3.324c-1.011.477-1.96 1.153-2.593 2.09-.774 1.086-1.063 2.441-1.063 3.754.04 1.879.55 3.719 1.238 5.453.797 2.035 1.832 3.965 2.953 5.836 1.883 3.102 4.016 6.043 6.274 8.879 2.121 2.68 4.363 5.258 6.676 7.77.629.617 1.16 1.335 1.843 1.894.047-.574 0-1.148 0-1.723-.175-5.203-.578-10.406-1.367-15.554-.617-3.887-1.414-7.778-2.82-11.465-.688-1.762-1.52-3.488-2.692-4.98-.996-1.247-2.308-2.34-3.906-2.68-1.543-.36-3.144.054-4.543.726M16.824 0h1.13c.862.078 1.718.29 2.503.668 2.02.96 3.504 2.75 4.629 4.64 1.789 3.051 2.855 6.458 3.7 9.872 1.12 4.668 1.765 9.441 2.202 14.218.438 5.032.664 10.082.617 15.13-1.125-1.071-2.199-2.188-3.27-3.31-3.983-4.206-7.788-8.6-11.245-13.257-2.375-3.223-4.602-6.574-6.387-10.168-1.129-2.316-2.098-4.746-2.492-7.309-.29-1.949-.2-4.039.738-5.808.844-1.64 2.36-2.832 4.016-3.578C14.188.535 15.48.109 16.825 0M53.863 21.488c.657-.16 1.38-.12 1.992.188.708.37 1.29 1.039 1.461 1.832.125.597.09 1.25-.203 1.797-.336.672-.941 1.187-1.633 1.476-.93.348-2.046.121-2.75-.582-.972-.89-1.136-2.488-.41-3.578.367-.531.907-.969 1.543-1.133M43.742 23.598c1.735-.676 3.617-.864 5.465-.848v2.164c-1.527-.008-3.164.191-4.43 1.121-1.414 1.016-2.215 2.735-2.308 4.45-.082 1.488-.024 2.98-.04 4.472h6.801v1.719h-6.8v12.332h-4.262V32.285c.023-1.812.387-3.66 1.348-5.219.968-1.59 2.492-2.816 4.226-3.468M93.54 24.465c2.108-1.375 4.694-1.742 7.167-1.715v2.164c-1.547-.008-3.2.2-4.477 1.148-1.449 1.07-2.234 2.872-2.285 4.649-.035 1.414-.007 2.828-.011 4.246h6.824v1.719c-2.278 0-4.555-.008-6.828.004.004 4.11 0 8.218 0 12.328h-4.258c-.004-4.809 0-9.617-.004-14.43.02-1.726-.11-3.488.363-5.172a8.35 8.35 0 0 1 3.508-4.941M104.098 22.797h4.234c.004 5.86-.008 11.719.008 17.578-.024 1.715.496 3.5 1.746 4.719 1.043 1.074 2.562 1.527 4.027 1.605v2.164c-2.133-.027-4.328-.472-6.133-1.656-1.32-.867-2.402-2.11-3.035-3.555-.547-1.218-.797-2.554-.847-3.886zM52.598 30.45c1.418-.005 2.84-.005 4.257 0 .004 6.152 0 12.304 0 18.456-1.417.004-2.84 0-4.257.004-.004-6.156 0-12.308 0-18.46" style="stroke:none;fill-rule:nonzero;fill:#ef531b;fill-opacity:1"/><g clip-path="url(#a)"><path d="M115.309 30.473h4.261v8.297c.008 1.328-.078 2.68.239 3.984.28 1.234.914 2.453 1.98 3.184 1.54 1.078 3.742 1.085 5.285.003 1.438-.957 2.23-2.68 2.262-4.382.004-3.696 0-7.391 0-11.086 1.273-.004 2.547.004 3.816-.004.168 0 .352-.02.493.101v18.922c-.079 1.082-.157 2.176-.489 3.219a8.27 8.27 0 0 1-3.535 4.656c-1.848 1.16-4.066 1.551-6.215 1.633h-.824v-2.191c1.59.043 3.3-.196 4.582-1.211 1.36-1.059 2.102-2.77 2.18-4.47.039-1.237 0-2.476.02-3.718-.958.871-2.239 1.281-3.497 1.485-1.98.28-4.062.101-5.89-.754-1.352-.641-2.579-1.633-3.317-2.953-.937-1.641-1.305-3.551-1.351-5.422z" style="stroke:none;fill-rule:nonzero;fill:#ef531b;fill-opacity:1"/></g><path d="M66.086 31.21c1.336-.53 2.793-.66 4.223-.663.02.613.035 1.226.027 1.84-.621-.051-1.2.203-1.785.363-1.156.36-2.207 1.105-2.867 2.133-.711 1.047-.993 2.332-1.004 3.586v10.465h-4.262v-9.07c.039-1.72.418-3.462 1.32-4.942.504-.856 1.196-1.582 1.946-2.223.718-.617 1.52-1.148 2.402-1.488M76.895 32.96c-.907.145-1.696.696-2.301 1.368-1.024 1.192-1.457 2.774-1.63 4.309 3.196.004 6.4.027 9.595-.008-.2-1.586-.512-3.309-1.7-4.477-1.004-1.05-2.558-1.422-3.964-1.191m-6.57 1.977c1.66-2.605 4.734-4.226 7.816-4.128 1.656.066 3.289.57 4.675 1.476 1.79 1.153 3.07 3.024 3.575 5.086.312 1.164.238 2.371.214 3.563q-6.844-.001-13.687.004c.133 1.015.336 2.039.785 2.968.746 1.543 2.242 2.739 3.957 2.98a8.8 8.8 0 0 0 3.403-.187c1.566-.41 2.972-1.261 4.246-2.242 0 .438-.004.875.004 1.316-1.141 1.098-2.45 2.067-3.961 2.586-1.86.653-3.91.715-5.82.239-1.833-.477-3.516-1.551-4.677-3.055a9.47 9.47 0 0 1-1.886-4.676c-.278-2.054.226-4.195 1.355-5.93M4.508 33.797c-.867.375-1.555 1.086-1.992 1.914-.43.82-.762 1.723-.766 2.664-.016 1.086.465 2.137 1.203 2.922.777.851 1.77 1.473 2.79 1.996 2.581 1.266 5.394 1.953 8.202 2.496 2.871.531 5.774.871 8.68 1.094 1.695.12 3.395.238 5.094.238-.52-.61-1.121-1.14-1.707-1.684a94 94 0 0 0-5.559-4.804c-2.36-1.871-4.808-3.653-7.457-5.098-1.531-.816-3.121-1.566-4.828-1.933-1.203-.254-2.512-.317-3.66.195m-.285-1.746c1.722-.512 3.566-.203 5.246.32 2.168.695 4.187 1.785 6.12 2.969 4.2 2.629 8.024 5.816 11.677 9.156 1.496 1.395 2.988 2.79 4.39 4.281-2.648.012-5.293-.105-7.933-.285-4.664-.347-9.336-.906-13.86-2.125-2.504-.707-5.023-1.586-7.136-3.14C1.324 42.195.145 40.687 0 38.898v-.945c.117-1.18.559-2.308 1.133-3.34.668-1.191 1.762-2.175 3.09-2.562" style="stroke:none;fill-rule:nonzero;fill:#ef531b;fill-opacity:1"/><path d="M15.457 5.5c-1.078.41-2.043 1.23-2.434 2.34-.48 1.32-.296 2.773.047 4.11.621 2.316 1.746 4.46 2.957 6.519 1.801 3.004 3.883 5.832 6.07 8.566 1.551 1.902 3.118 3.797 4.81 5.578-.067-1.937-.282-3.87-.485-5.797-.477-4.144-1.133-8.28-2.254-12.304-.621-2.164-1.367-4.317-2.531-6.25-.727-1.164-1.645-2.293-2.926-2.856-1.035-.457-2.238-.355-3.254.094m-1.469-2.176c1.399-.668 3-1.086 4.543-.726 1.598.34 2.907 1.433 3.907 2.68 1.171 1.492 2.003 3.218 2.69 4.98 1.407 3.687 2.204 7.578 2.821 11.465.79 5.148 1.192 10.351 1.367 15.554 0 .575.047 1.149 0 1.723-.683-.559-1.214-1.277-1.843-1.895-2.313-2.511-4.555-5.09-6.676-7.77-2.258-2.835-4.39-5.776-6.274-8.878-1.12-1.871-2.156-3.8-2.953-5.836-.687-1.734-1.199-3.574-1.238-5.453 0-1.313.29-2.668 1.063-3.754.632-.937 1.582-1.613 2.593-2.09M5.496 35.402c-.578.227-1.059.676-1.363 1.215-.43.774-.66 1.715-.383 2.578.277.856.957 1.512 1.676 2.016 1.347.914 2.898 1.465 4.449 1.922 1.98.57 4.012.949 6.047 1.25 2.437.34 4.89.613 7.351.691-.253-.3-.562-.547-.859-.804a78 78 0 0 0-3.738-3.051c-2.332-1.778-4.75-3.477-7.387-4.77-1.059-.508-2.16-.949-3.312-1.172-.82-.152-1.692-.187-2.48.125m-.988-1.605c1.148-.512 2.457-.45 3.66-.195 1.707.367 3.293 1.117 4.824 1.93 2.653 1.445 5.102 3.226 7.461 5.097a94 94 0 0 1 5.559 4.809c.586.539 1.187 1.074 1.707 1.68-1.7.003-3.399-.114-5.094-.235-2.906-.227-5.809-.563-8.68-1.098-2.808-.543-5.62-1.226-8.203-2.496-1.02-.52-2.012-1.14-2.789-1.996-.738-.781-1.219-1.836-1.203-2.922.004-.937.336-1.84.766-2.66.437-.828 1.125-1.54 1.992-1.914" style="stroke:none;fill-rule:nonzero;fill:#f68912;fill-opacity:1"/><path d="M15.457 5.5c1.016-.45 2.219-.55 3.254-.094 1.281.563 2.203 1.692 2.926 2.856 1.164 1.933 1.91 4.086 2.531 6.25 1.121 4.02 1.777 8.156 2.254 12.3.203 1.93.422 3.864.484 5.801-1.691-1.781-3.258-3.675-4.808-5.582-2.188-2.73-4.27-5.558-6.07-8.562-1.212-2.059-2.337-4.203-2.958-6.52-.343-1.336-.527-2.789-.047-4.113.391-1.106 1.356-1.926 2.434-2.336M5.496 35.402c.79-.312 1.664-.277 2.48-.125 1.157.223 2.254.664 3.313 1.176 2.637 1.293 5.059 2.988 7.39 4.766 1.278.976 2.52 2 3.735 3.05.297.262.606.504.86.805-2.462-.078-4.915-.351-7.352-.691-2.035-.301-4.067-.676-6.047-1.25-1.55-.457-3.102-1.008-4.45-1.918-.714-.508-1.394-1.164-1.675-2.02-.277-.863-.047-1.804.383-2.578a2.74 2.74 0 0 1 1.363-1.215" style="stroke:none;fill-rule:nonzero;fill:#facd08;fill-opacity:1"/></svg>
